X:1
T: Tiger
C:Bruce Shawyer
R:Strathspey
Q:128
K:F
M:4/4
L:1/16
|:A3B c3f d3c B3A|B2A4GA B8|Ad3 d3d fd3 d3d|c3B Ac3 d8|
B3A G3A BG3 G4|A3G F3G AF3 F4|FD3 D3D DB,3 B,3B,|CF3 F3E F8|
cf3 f3g a3g f3a|ge3 e3d c8|Ac3 c3c Ad3 d3f|d3c Bd3 c8|
cf3 f3g a3g f3a|ge3 e3d c8|Ac3 c3c Bd3 d3d|ce3 e3e f8:|
